img/descr5.svg

<svg width="30" height="30" viewBox="0 0 30 30" fill="none" xmlns="http://www.w3.org/2000/svg">
<path d="M20 0C20.789 0 21.4286 0.639593 21.4286 1.42857V2.85571L28.5714 2.85714V11.4286L25.6857 11.4271L29.6382 22.2789C29.8721 22.9029 30 23.5787 30 24.2843C30 27.4402 27.4416 29.9986 24.2857 29.9986C21.624 29.9986 19.3873 28.1787 18.7521 25.7154L12.6768 25.7154C12.0421 28.1794 9.80509 30 7.14286 30C4.36447 30 2.04922 28.0171 1.53505 25.3893C0.622251 24.9129 0 23.9577 0 22.8571V15.7143H12.8571C12.8571 16.4469 13.4086 17.0507 14.1191 17.1332L14.2857 17.1429H17.1429C17.8755 17.1429 18.4793 16.5914 18.5618 15.8809L18.5714 15.7143V2.85714H14.2857V0H20ZM7.14286 21.4286C5.5649 21.4286 4.28571 22.7078 4.28571 24.2857C4.28571 25.8637 5.5649 27.1429 7.14286 27.1429C8.72081 27.1429 10 25.8637 10 24.2857C10 22.7078 8.72081 21.4286 7.14286 21.4286ZM24.2857 21.4286C22.7078 21.4286 21.4286 22.7078 21.4286 24.2857C21.4286 25.8637 22.7078 27.1429 24.2857 27.1429C25.8637 27.1429 27.1429 25.8637 27.1429 24.2857C27.1429 22.7078 25.8637 21.4286 24.2857 21.4286ZM11.4286 2.85714C12.2176 2.85714 12.8571 3.49674 12.8571 4.28571V14.2857H0V4.28571C0 3.49674 0.639593 2.85714 1.42857 2.85714H11.4286ZM25.7143 5.71429H21.4286V8.57143H25.7143V5.71429ZM10 5.71429H2.85714V7.14286H10V5.71429Z" fill="#E0BEA2"/>
</svg>

<svg width="30" height="30" fill="none" xmlns="http://www.w3.org/2000/svg"><path d="M20 0c.789 0 1.429.64 1.429 1.429v1.427l7.142.001v8.572l-2.885-.002 3.952 10.852a5.714 5.714 0 11-10.886 3.436h-6.075a5.717 5.717 0 01-11.142-.326A2.854 2.854 0 010 22.857v-7.143h12.857a1.43 1.43 0 001.262 1.42l.167.009h2.857a1.43 1.43 0 001.419-1.262l.01-.167V2.857h-4.286V0H20zM7.143 21.429a2.857 2.857 0 100 5.714 2.857 2.857 0 000-5.714zm17.143 0a2.857 2.857 0 100 5.714 2.857 2.857 0 000-5.714zM11.429 2.857c.789 0 1.428.64 1.428 1.429v10H0v-10c0-.79.64-1.429 1.429-1.429h10zm14.285 2.857H21.43v2.857h4.285V5.714zM10 5.714H2.857v1.429H10V5.714z" fill="#E0BEA2"/></svg>
